Adwaita++/actions/22/mail-meeting-request-reply.svg

<svg height="22" viewBox="0 0 22 22" width="22" xmlns="http://www.w3.org/2000/svg">
  <path d="m14.003906 1.9980469-12.003906.0019531c-1.108 0-2 .892-2 2v8c0 1.108.892 2 2 2h11v-7c.00057-.21726.071905-.4284325.203125-.6015625l-5.1992188 2.5996094-6-3v-2l6 3 5.9999998-3v2h2v-2c0-1.108-.892-2-2-2zm-.003906 5.0019531v4h2v-4zm0 5v2h2v-2z" fill="#444" transform="translate(3 3)"/>
</svg>

<svg xmlns="http://www.w3.org/2000/svg" width="22" height="22" viewBox="0 0 22 22">
 <defs>
  <style id="current-color-scheme" type="text/css">
   .ColorScheme-Text { color:#444444; } .ColorScheme-Highlight { color:#4285f4; }
  </style>
 </defs>
 <path style="fill:currentColor" class="ColorScheme-Text" d="M 14.003906 1.9980469 L 2 2 C 0.892 2 0 2.892 0 4 L 0 12 C 0 13.108 0.892 14 2 14 L 13 14 L 13 7 C 13.00057 6.78274 13.071905 6.5715675 13.203125 6.3984375 L 8.0039062 8.9980469 L 2.0039062 5.9980469 L 2.0039062 3.9980469 L 8.0039062 6.9980469 L 14.003906 3.9980469 L 14.003906 5.9980469 L 16.003906 5.9980469 L 16.003906 3.9980469 C 16.003906 2.8900469 15.111906 1.9980469 14.003906 1.9980469 z M 14 7 L 14 11 L 16 11 L 16 7 L 14 7 z M 14 12 L 14 14 L 16 14 L 16 12 L 14 12 z" transform="translate(3 3)"/>
</svg>
